public/logos/FV.svg

<?xml version="1.0" encoding="UTF-8"?>
<svg xmlns="http://www.w3.org/2000/svg" xmlns:xlink="http://www.w3.org/1999/xlink" width="176pt" height="26.39pt" viewBox="0 0 176 26.39" version="1.1">
<defs>
<clipPath id="clip1">
  <path d="M 0 0 L 34 0 L 34 26.390625 L 0 26.390625 Z M 0 0 "/>
</clipPath>
</defs>
<g id="surface1">
<g clip-path="url(#clip1)" clip-rule="nonzero">
<path style=" stroke:none;fill-rule:nonzero;fill:rgb(87.19635%,10.838318%,17.445374%);fill-opacity:1;" d="M 21.679688 14.171875 C 28.015625 13.949219 31.863281 11.265625 31.863281 8.105469 C 31.863281 4.734375 27.671875 2.003906 20.53125 2.003906 L 19.503906 2.003906 L 21.605469 0 L 18.484375 0.0117188 L 13.332031 2.003906 L 5.125 2.003906 C 2.242188 2.003906 0.640625 2.710938 0 4.089844 L 16.867188 4.089844 C 21.515625 4.089844 24.640625 4.792969 24.640625 8 C 24.640625 11.457031 20.882812 12.128906 16.867188 12.128906 L 9.292969 12.128906 L 16.007812 19.339844 C 21.691406 25.328125 27.019531 26.390625 33.636719 26.390625 L 21.679688 14.171875 "/>
</g>
<path style=" stroke:none;fill-rule:nonzero;fill:rgb(87.19635%,10.838318%,17.445374%);fill-opacity:1;" d="M 76.144531 6.757812 C 70.363281 6.757812 66.53125 9.773438 66.53125 14.167969 C 66.53125 18.558594 70.363281 21.527344 76.144531 21.527344 C 81.929688 21.527344 85.761719 18.558594 85.761719 14.167969 C 85.761719 9.773438 81.929688 6.757812 76.144531 6.757812 M 76.144531 20.03125 C 73.046875 20.03125 70.898438 17.761719 70.898438 14.167969 C 70.898438 10.59375 73.046875 8.253906 76.144531 8.253906 C 79.269531 8.253906 81.390625 10.59375 81.390625 14.167969 C 81.390625 17.738281 79.269531 20.03125 76.144531 20.03125 "/>
<path style=" stroke:none;fill-rule:nonzero;fill:rgb(87.19635%,10.838318%,17.445374%);fill-opacity:1;" d="M 61.992188 11.488281 C 61.992188 8.011719 58.722656 6.832031 53.988281 6.832031 C 51.523438 6.832031 49.300781 7.113281 46.007812 7.210938 L 46.007812 21.164062 L 49.910156 21.164062 L 49.910156 16.289062 L 53.988281 16.289062 C 54.015625 16.289062 54.039062 16.289062 54.066406 16.289062 L 55.425781 17.933594 C 57.722656 20.683594 59.476562 21.433594 63.039062 21.433594 L 63.527344 21.433594 L 58.332031 15.792969 C 60.664062 15.136719 61.992188 13.78125 61.992188 11.488281 M 49.910156 8.566406 C 50.886719 8.445312 52.167969 8.324219 53.546875 8.324219 C 56.085938 8.324219 57.625 9.339844 57.625 11.460938 C 57.625 13.632812 56.085938 14.839844 53.546875 14.839844 L 49.910156 14.839844 L 49.910156 8.566406 "/>
<path style=" stroke:none;fill-rule:nonzero;fill:rgb(87.19635%,10.838318%,17.445374%);fill-opacity:1;" d="M 131.34375 7.121094 L 135.25 7.121094 L 135.25 21.164062 L 131.34375 21.164062 L 131.34375 7.121094 "/>
<path style=" stroke:none;fill-rule:nonzero;fill:rgb(87.19635%,10.838318%,17.445374%);fill-opacity:1;" d="M 155.136719 7.121094 L 149.773438 14.484375 L 144.472656 7.121094 L 139.886719 7.121094 L 146.71875 16.335938 L 146.71875 21.164062 L 150.621094 21.164062 L 150.621094 16.335938 L 157.382812 7.121094 L 155.136719 7.121094 "/>
<path style=" stroke:none;fill-rule:nonzero;fill:rgb(87.19635%,10.838318%,17.445374%);fill-opacity:1;" d="M 171.65625 21.164062 L 176 21.164062 L 168.777344 7.121094 L 164.285156 7.121094 L 157.089844 21.164062 L 159.234375 21.164062 L 161.152344 17.421875 L 169.757812 17.421875 Z M 161.992188 15.78125 L 165.480469 8.984375 L 168.925781 15.78125 Z M 161.992188 15.78125 "/>
<path style=" stroke:none;fill-rule:nonzero;fill:rgb(87.19635%,10.838318%,17.445374%);fill-opacity:1;" d="M 113.433594 10.351562 C 113.433594 9.242188 114.75 8.207031 117.410156 8.207031 C 121.851562 8.207031 124.144531 9.917969 124.144531 9.917969 L 124.976562 7.796875 C 124.976562 7.796875 121.703125 6.757812 117.605469 6.757812 C 112.628906 6.757812 109.894531 8.300781 109.894531 11.246094 C 109.894531 17.6875 122.21875 14.601562 122.21875 18.050781 C 122.21875 19.207031 120.777344 19.921875 117.726562 19.921875 C 113.507812 19.921875 110.332031 18.230469 110.332031 18.230469 L 110.332031 20.488281 C 110.332031 20.488281 113.554688 21.550781 117.996094 21.550781 C 122.925781 21.550781 125.730469 20.390625 125.730469 17.085938 C 125.730469 10.714844 113.433594 13.464844 113.433594 10.351562 "/>
<path style=" stroke:none;fill-rule:nonzero;fill:rgb(87.19635%,10.838318%,17.445374%);fill-opacity:1;" d="M 93.765625 10.351562 C 93.765625 9.242188 95.082031 8.207031 97.742188 8.207031 C 102.183594 8.207031 104.476562 9.917969 104.476562 9.917969 L 105.304688 7.796875 C 105.304688 7.796875 102.035156 6.757812 97.9375 6.757812 C 92.957031 6.757812 90.226562 8.300781 90.226562 11.246094 C 90.226562 17.6875 102.550781 14.601562 102.550781 18.050781 C 102.550781 19.207031 101.109375 19.921875 98.058594 19.921875 C 93.835938 19.921875 90.664062 18.230469 90.664062 18.230469 L 90.664062 20.488281 C 90.664062 20.488281 93.886719 21.550781 98.328125 21.550781 C 103.257812 21.550781 106.0625 20.390625 106.0625 17.085938 C 106.0625 10.714844 93.765625 13.464844 93.765625 10.351562 "/>
</g>
</svg>

<svg xmlns="http://www.w3.org/2000/svg" width="176pt" height="35.187" viewBox="0 0 176 26.39"><defs><clipPath id="a"><path d="M0 0h34v26.39H0Zm0 0"/></clipPath></defs><g clip-path="url(#a)"><path d="M21.68 14.172c6.336-.223 10.183-2.906 10.183-6.067 0-3.37-4.191-6.101-11.332-6.101h-1.027L21.605 0l-3.12.012-5.153 1.992H5.125C2.242 2.004.641 2.71 0 4.09h16.867c4.649 0 7.774.703 7.774 3.91 0 3.457-3.758 4.129-7.774 4.129H9.293l6.715 7.21c5.683 5.99 11.012 7.052 17.629 7.052z" style="stroke:none;fill-rule:nonzero;fill:#de1c2c;fill-opacity:1"/></g><path d="M76.145 6.758c-5.782 0-9.614 3.015-9.614 7.41 0 4.39 3.832 7.36 9.614 7.36 5.785 0 9.617-2.97 9.617-7.36 0-4.395-3.832-7.41-9.617-7.41m0 13.273c-3.098 0-5.247-2.27-5.247-5.863 0-3.574 2.149-5.914 5.247-5.914 3.125 0 5.246 2.34 5.246 5.914 0 3.57-2.121 5.863-5.246 5.863M61.992 11.488c0-3.476-3.27-4.656-8.004-4.656-2.465 0-4.687.281-7.98.379v13.953h3.902V16.29h4.156000000000001l1.36 1.645c2.297 2.75 4.05 3.5 7.613 3.5h.488l-5.195-5.641c2.332-.656 3.66-2.012 3.66-4.305M49.91 8.566a30 30 0 0 1 3.637-.242c2.539 0 4.078 1.016 4.078 3.137 0 2.172-1.54 3.379-4.078 3.379H49.91zM131.344 7.121h3.906v14.043h-3.906zM155.137 7.121l-5.364 7.363-5.3-7.363h-4.586l6.832 9.215v4.828h3.902v-4.828l6.762-9.215zM171.656 21.164H176l-7.223-14.043h-4.492l-7.195 14.043h2.144l1.918-3.742h8.606Zm-9.664-5.383 3.488-6.797 3.446 6.797ZM113.434 10.352c0-1.11 1.316-2.145 3.976-2.145 4.442 0 6.735 1.711 6.735 1.711l.832-2.121s-3.274-1.04-7.372-1.04c-4.976 0-7.71 1.544-7.71 4.49 0 6.44 12.324 3.355 12.324 6.804 0 1.156-1.442 1.87-4.492 1.87-4.22 0-7.395-1.69-7.395-1.69v2.257s3.223 1.063 7.664 1.063c4.93 0 7.734-1.16 7.734-4.465 0-6.371-12.296-3.621-12.296-6.734M93.766 10.352c0-1.11 1.316-2.145 3.976-2.145 4.442 0 6.735 1.711 6.735 1.711l.828-2.121s-3.27-1.04-7.368-1.04c-4.98 0-7.71 1.544-7.71 4.49 0 6.44 12.324 3.355 12.324 6.804 0 1.156-1.442 1.87-4.492 1.87-4.223 0-7.395-1.69-7.395-1.69v2.257s3.223 1.063 7.664 1.063c4.93 0 7.734-1.16 7.734-4.465 0-6.371-12.296-3.621-12.296-6.734" style="stroke:none;fill-rule:nonzero;fill:#de1c2c;fill-opacity:1"/></svg>
